test_waco/assets/benefits/remote_week.svg

<svg fill="none" height="142" viewBox="0 0 153 142" width="153" xmlns="http://www.w3.org/2000/svg" xmlns:xlink="http://www.w3.org/1999/xlink"><filter id="a" color-interpolation-filters="sRGB" filterUnits="userSpaceOnUse" height="151.771" width="152.185" x=".193409" y="-10.1717"><feFlood flood-opacity="0" result="BackgroundImageFix"/><feColorMatrix in="SourceAlpha" result="hardAlpha" type="matrix" values="0 0 0 0 0 0 0 0 0 0 0 0 0 0 0 0 0 0 127 0"/><feMorphology in="SourceAlpha" operator="dilate" radius="2.9062" result="effect1_dropShadow"/><feOffset/><feGaussianBlur stdDeviation="3.63275"/><feColorMatrix type="matrix" values="0 0 0 0 0 0 0 0 0 1 0 0 0 0 0.407843 0 0 0 1 0"/><feBlend in2="BackgroundImageFix" mode="normal" result="effect1_dropShadow"/><feBlend in="SourceGraphic" in2="effect1_dropShadow" mode="normal" result="shape"/></filter><linearGradient id="b" gradientUnits="userSpaceOnUse" x1="10.3653" x2="142.206" y1="65.7179" y2="65.7179"><stop offset="0" stop-color="#8fff70"/><stop offset="1" stop-color="#8fffff"/></linearGradient><linearGradient id="c"><stop offset="0" stop-color="#8fff73"/><stop offset="1" stop-color="#8ffff9"/></linearGradient><linearGradient id="d" gradientUnits="userSpaceOnUse" x1="42.3651" x2="111.365" xlink:href="#c" y1="59.3833" y2="59.3832"/><linearGradient id="e" gradientUnits="userSpaceOnUse" x1="42.3651" x2="111.365" xlink:href="#c" y1="84.4008" y2="84.4008"/><linearGradient id="f" gradientUnits="userSpaceOnUse" x1="72.2651" x2="81.4651" xlink:href="#c" y1="84.3202" y2="84.3202"/><linearGradient id="g" gradientUnits="userSpaceOnUse" x1="46.9652" x2="106.765" xlink:href="#c" y1="61.643" y2="61.643"/><linearGradient id="h" gradientUnits="userSpaceOnUse" x1="58.4652" x2="95.2652" xlink:href="#c" y1="100.461" y2="100.461"/><linearGradient id="i" gradientUnits="userSpaceOnUse" x1="63.0652" x2="90.665" xlink:href="#c" y1="93.6009" y2="93.6009"/><linearGradient id="j" gradientUnits="userSpaceOnUse" x1="82.6228" x2="97.654" xlink:href="#c" y1="68.906" y2="68.906"/><linearGradient id="k" gradientUnits="userSpaceOnUse" x1="57.3152" x2="91.8151" xlink:href="#c" y1="50.4456" y2="50.4456"/><linearGradient id="l" gradientUnits="userSpaceOnUse" x1="61.9152" x2="73.4151" xlink:href="#c" y1="62.5105" y2="62.5105"/><linearGradient id="m" gradientUnits="userSpaceOnUse" x1="57.3152" x2="91.8152" xlink:href="#c" y1="58.6367" y2="58.6367"/><clipPath id="n"><path d="m10.3651 0h131.841v131.427h-131.841z"/></clipPath><clipPath id="o"><path d="m42.3651 36h69v69h-69z"/></clipPath><g filter="url(#a)"><g clip-path="url(#n)"><path d="m78.0081 131.427c-.7341 0-1.4681-.018-2.2209-.056-8.5071-.471-16.4308-3.576-21.1737-8.319l-37.228-37.2468c-4.7052-4.7053-7.2649-12.3843-7.0014-21.0419.2635-8.3942 3.1996-16.2049 7.886-20.8726l15.0757-15.0756c.4328-.4329 1.1292-.4329 1.5621 0s.4329 1.1293 0 1.5621l-15.0756 15.0757c-4.2912 4.2912-6.9826 11.5373-7.2273 19.3668-.2447 7.9425 2.1268 15.1886 6.3427 19.4045l37.2468 37.2468c4.3665 4.367 11.7443 7.246 19.7244 7.679 8.0742.433 15.358-1.769 19.4986-5.91l15.5275-15.527c.433-.433 1.129-.433 1.562 0s.433 1.129 0 1.562l-15.5274 15.527c-4.2347 4.273-11.0667 6.625-18.9715 6.625zm48.3509-36.87c-.282 0-.564-.113-.79-.32-.433-.4329-.433-1.1293 0-1.5621l7.547-7.5473c4.178-4.1783 6.757-11.0479 6.87-18.3505.131-7.5096-2.259-14.2663-6.531-18.5575l-39.0162-39.01601c-4.2724-4.27237-11.3867-6.8885-19.028-6.9826-7.6226-.09411-14.6428 2.29616-18.7834 6.43679l-9.7493 9.74932c-.4329.4329-1.1293.4329-1.5622 0s-.4329-1.1293 0-1.5622l9.7493-9.74926c4.5359-4.55469 12.1584-7.208459 20.3644-7.09553261 8.3377.11292661 15.8285 2.89844261 20.5714 7.62251261l39.016 39.01598c4.705 4.7053 7.321 12.0455 7.19 20.1573-.132 7.8672-2.955 15.3015-7.529 19.8939l-7.547 7.5472c-.207.207-.489.32-.772.32z" fill="url(#b)"/><g clip-path="url(#o)"><path d="m106.764 37.15h-59.7977c-2.537 0-4.6012 2.0643-4.6012 4.6011v37.9488c0 .6348.5152 1.15 1.15 1.15h66.6999c.635 0 1.15-.5152 1.15-1.15v-37.9488c0-2.5368-2.064-4.6011-4.601-4.6011zm2.301 41.4h-64.3998v-36.7989c0-1.2696 1.0327-2.3011 2.3011-2.3011h59.7977c1.268 0 2.301 1.0315 2.301 2.3011z" fill="url(#d)"/><path d="m110.215 78.55h-66.6999c-.6348 0-1.15.5152-1.15 1.1499v5.7489c0 2.5369 2.0642 4.6012 4.6012 4.6012h59.7977c2.537 0 4.601-2.0643 4.601-4.6012v-5.7489c0-.6347-.515-1.1499-1.15-1.1499zm-1.15 6.8989c0 1.2696-1.033 2.3011-2.301 2.3011h-59.7977c-1.2684 0-2.3011-1.0315-2.3011-2.3011v-4.5989h64.3998z" fill="url(#e)"/><path d="m80.3151 83.15h-6.9c-.6348 0-1.15.5152-1.15 1.15 0 .6347.5152 1.1499 1.15 1.1499h6.9c.6347 0 1.15-.5152 1.15-1.1499 0-.6348-.5153-1.15-1.15-1.15z" fill="url(#f)"/><path d="m105.615 41.7501h-57.4998c-.6348 0-1.15.5152-1.15 1.1499v36.8001c0 .6347.5152 1.1499 1.15 1.1499h57.4998c.635 0 1.15-.5152 1.15-1.1499v-36.8001c0-.6347-.515-1.1499-1.15-1.1499zm-1.15 36.7999h-55.1999v-34.5h55.1999z" fill="url(#g)"/><path d="m91.8151 96.95h-29.8999c-1.9021 0-3.45 1.5479-3.45 3.45 0 1.902 1.5479 3.45 3.45 3.45h29.9001c1.902 0 3.4499-1.548 3.4499-3.45 0-1.9021-1.548-3.45-3.4501-3.45zm0 4.6h-29.8999c-.6347 0-1.1499-.516-1.1499-1.15 0-.6337.5152-1.1499 1.1499-1.1499h29.9001c.6347 0 1.1499.5162 1.1499 1.1499 0 .634-.5152 1.15-1.1501 1.15z" fill="url(#h)"/><path d="m89.5151 96.95c-3.8158 0-5.75-2.7082-5.75-8.0499 0-.6348-.5153-1.15-1.15-1.15h-11.5c-.6347 0-1.1499.5152-1.1499 1.15 0 5.3417-1.9343 8.0499-5.7501 8.0499-.6347 0-1.1499.5152-1.1499 1.15 0 .6347.5152 1.1499 1.1499 1.1499h25.3c.6347 0 1.1499-.5152 1.1499-1.1499 0-.6348-.5152-1.15-1.1499-1.15zm-19.6984 0c1.4157-1.5685 2.2493-3.9043 2.4173-6.9h9.2632c.1667 2.9957 1.0005 5.3315 2.4173 6.9z" fill="url(#i)"/><path d="m97.3168 71.0336-2.7761-2.7761 1.5445-1.5444c.2863-.2864.4013-.7026.3024-1.0948s-.3968-.7027-.7844-.8199l-11.4999-3.45c-.4059-.122-.844-.0104-1.1431.2886-.3001.2991-.4105.7383-.2887 1.1431l3.45 11.5c.1162.3886.4278.6865.82.7854.3909.0966.8084-.0162 1.0948-.3024l1.6261-1.6273 2.776 2.7772c.2151.2162.5083.3369.813.3369.3048 0 .598-.1207.8131-.3369l3.2522-3.2533c.4497-.4496.4497-1.1764.0001-1.6261zm-4.0654 2.4403-2.5276-2.5289c-.2933-.2932-.6773-.4393-1.0614-.4393-.3853 0-.7694.1472-1.0614.4381l-.8303.8303-2.2828-7.6095 7.6095 2.2828-.8901.8901c-.245.2461-.3795.5727-.3795.92 0 .3485.1357.6774.3818.9212l2.6679 2.6679z" fill="url(#j)"/><path d="m90.6651 46.35h-32.2c-.6347 0-1.1499.5152-1.1499 1.1499v5.7501c0 .6347.5152 1.1499 1.1499 1.1499h32.2c.6348 0 1.15-.5152 1.15-1.1499v-5.7501c0-.6347-.5152-1.1499-1.15-1.1499zm-1.15 5.75h-29.9v-3.45h29.9z" fill="url(#k)"/><path d="m72.2652 59.0001h-9.2001c-.6347 0-1.1499.5152-1.1499 1.1499v4.6c0 .6347.5152 1.1499 1.1499 1.1499h9.2001c.6347 0 1.1499-.5152 1.1499-1.1499v-4.6c0-.6347-.5152-1.1499-1.1499-1.1499zm-1.1501 4.5999h-6.9v-2.3h6.9z" fill="url(#l)"/><path d="m90.6651 46.35h-32.2c-.6347 0-1.1499.5152-1.1499 1.1499v21.85c0 .6347.5152 1.1499 1.1499 1.1499h27.377c.3645 0 .706-.1712.9223-.4634.2174-.2921.2841-.6693.1794-1.0178l-1.4559-4.8541 4.8473 1.4548c.3485.1047.7257.038 1.0165-.1794.2921-.2161.4635-.5588.4635-.9223v-17.0177c-.0002-.6347-.5154-1.1499-1.1501-1.1499zm-1.15 16.6221-5.4131-1.6238c-.4059-.122-.844-.0104-1.1431.2887-.3001.3001-.4105.7382-.2886 1.1443l1.626 5.4188h-24.6812v-19.5501h29.9z" fill="url(#m)"/></g></g></g></svg>

<svg width="153" height="142" viewBox="0 0 153 142" fill="none" xmlns="http://www.w3.org/2000/svg">
<g filter="url(#filter0_d)">
<g clip-path="url(#clip0)">
<path d="M78.0081 131.427C77.274 131.427 76.54 131.409 75.7872 131.371C67.2801 130.9 59.3564 127.795 54.6135 123.052L17.3855 85.8052C12.6803 81.0999 10.1206 73.4209 10.3841 64.7633C10.6476 56.3691 13.5837 48.5584 18.2701 43.8907L33.3458 28.8151C33.7786 28.3822 34.475 28.3822 34.9079 28.8151C35.3408 29.248 35.3408 29.9444 34.9079 30.3772L19.8323 45.4529C15.5411 49.7441 12.8497 56.9902 12.605 64.8197C12.3603 72.7622 14.7318 80.0083 18.9477 84.2242L56.1945 121.471C60.561 125.838 67.9388 128.717 75.9189 129.15C83.9931 129.583 91.2769 127.381 95.4175 123.24L110.945 107.713C111.378 107.28 112.074 107.28 112.507 107.713C112.94 108.146 112.94 108.842 112.507 109.275L96.9796 124.802C92.7449 129.075 85.9129 131.427 78.0081 131.427ZM126.359 94.557C126.077 94.557 125.795 94.444 125.569 94.237C125.136 93.8041 125.136 93.1077 125.569 92.6749L133.116 85.1276C137.294 80.9493 139.873 74.0797 139.986 66.7771C140.117 59.2675 137.727 52.5108 133.455 48.2196L94.4388 9.20359C90.1664 4.93122 83.0521 2.31509 75.4108 2.22099C67.7882 2.12688 60.768 4.51715 56.6274 8.65778L46.8781 18.4071C46.4452 18.84 45.7488 18.84 45.3159 18.4071C44.883 17.9742 44.883 17.2778 45.3159 16.8449L55.0652 7.09564C59.6011 2.54095 67.2236 -0.112819 75.4296 0.000107385C83.7673 0.113034 91.2581 2.89855 96.001 7.62262L135.017 46.6386C139.722 51.3439 142.338 58.6841 142.207 66.7959C142.075 74.6631 139.252 82.0974 134.678 86.6898L127.131 94.237C126.924 94.444 126.642 94.557 126.359 94.557Z" fill="url(#paint0_linear)"/>
<g clip-path="url(#clip1)">
<path d="M106.764 37.15H46.9663C44.4293 37.15 42.3651 39.2143 42.3651 41.7511V79.6999C42.3651 80.3347 42.8803 80.8499 43.5151 80.8499H110.215C110.85 80.8499 111.365 80.3347 111.365 79.6999V41.7511C111.365 39.2143 109.301 37.15 106.764 37.15ZM109.065 78.55H44.6652V41.7511C44.6652 40.4815 45.6979 39.45 46.9663 39.45H106.764C108.032 39.45 109.065 40.4815 109.065 41.7511V78.55Z" fill="url(#paint1_linear)"/>
<path d="M110.215 78.55H43.5151C42.8803 78.55 42.3651 79.0652 42.3651 79.6999V85.4488C42.3651 87.9857 44.4293 90.05 46.9663 90.05H106.764C109.301 90.05 111.365 87.9857 111.365 85.4488V79.6999C111.365 79.0652 110.85 78.55 110.215 78.55ZM109.065 85.4489C109.065 86.7185 108.032 87.75 106.764 87.75H46.9663C45.6979 87.75 44.6652 86.7185 44.6652 85.4489V80.85H109.065V85.4489H109.065Z" fill="url(#paint2_linear)"/>
<path d="M80.3151 83.15H73.4151C72.7803 83.15 72.2651 83.6652 72.2651 84.3C72.2651 84.9347 72.7803 85.4499 73.4151 85.4499H80.3151C80.9498 85.4499 81.4651 84.9347 81.4651 84.3C81.4651 83.6652 80.9498 83.15 80.3151 83.15Z" fill="url(#paint3_linear)"/>
<path d="M105.615 41.7501H48.1152C47.4804 41.7501 46.9652 42.2653 46.9652 42.9V79.7001C46.9652 80.3348 47.4804 80.85 48.1152 80.85H105.615C106.25 80.85 106.765 80.3348 106.765 79.7001V42.9C106.765 42.2653 106.25 41.7501 105.615 41.7501ZM104.465 78.55H49.2651V44.05H104.465V78.55Z" fill="url(#paint4_linear)"/>
<path d="M91.8151 96.95H61.9152C60.0131 96.95 58.4652 98.4979 58.4652 100.4C58.4652 102.302 60.0131 103.85 61.9152 103.85H91.8153C93.7173 103.85 95.2652 102.302 95.2652 100.4C95.2652 98.4979 93.7172 96.95 91.8151 96.95ZM91.8151 101.55H61.9152C61.2805 101.55 60.7653 101.034 60.7653 100.4C60.7653 99.7663 61.2805 99.2501 61.9152 99.2501H91.8153C92.45 99.2501 92.9652 99.7663 92.9652 100.4C92.9652 101.034 92.45 101.55 91.8151 101.55Z" fill="url(#paint5_linear)"/>
<path d="M89.5151 96.95C85.6993 96.95 83.7651 94.2418 83.7651 88.9001C83.7651 88.2653 83.2498 87.7501 82.6151 87.7501H71.1151C70.4804 87.7501 69.9652 88.2653 69.9652 88.9001C69.9652 94.2418 68.0309 96.95 64.2151 96.95C63.5804 96.95 63.0652 97.4652 63.0652 98.1C63.0652 98.7347 63.5804 99.2499 64.2151 99.2499H89.5151C90.1498 99.2499 90.665 98.7347 90.665 98.1C90.665 97.4652 90.1498 96.95 89.5151 96.95ZM69.8167 96.95C71.2324 95.3815 72.066 93.0457 72.234 90.05H81.4972C81.6639 93.0457 82.4977 95.3815 83.9145 96.95H69.8167Z" fill="url(#paint6_linear)"/>
<path d="M97.3168 71.0336L94.5407 68.2575L96.0852 66.7131C96.3715 66.4267 96.4865 66.0105 96.3876 65.6183C96.2887 65.2261 95.9908 64.9156 95.6032 64.7984L84.1033 61.3484C83.6974 61.2264 83.2593 61.338 82.9602 61.637C82.6601 61.9361 82.5497 62.3753 82.6715 62.7801L86.1215 74.2801C86.2377 74.6687 86.5493 74.9666 86.9415 75.0655C87.3324 75.1621 87.7499 75.0493 88.0363 74.7631L89.6624 73.1358L92.4384 75.913C92.6535 76.1292 92.9467 76.2499 93.2514 76.2499C93.5562 76.2499 93.8494 76.1292 94.0645 75.913L97.3167 72.6597C97.7664 72.2101 97.7664 71.4833 97.3168 71.0336ZM93.2514 73.4739L90.7238 70.945C90.4305 70.6518 90.0465 70.5057 89.6624 70.5057C89.2771 70.5057 88.893 70.6529 88.601 70.9438L87.7707 71.7741L85.4879 64.1646L93.0974 66.4474L92.2073 67.3375C91.9623 67.5836 91.8278 67.9102 91.8278 68.2575C91.8278 68.606 91.9635 68.9349 92.2096 69.1787L94.8775 71.8466L93.2514 73.4739Z" fill="url(#paint7_linear)"/>
<path d="M90.6651 46.35H58.4651C57.8304 46.35 57.3152 46.8652 57.3152 47.4999V53.25C57.3152 53.8847 57.8304 54.3999 58.4651 54.3999H90.6651C91.2999 54.3999 91.8151 53.8847 91.8151 53.25V47.4999C91.8151 46.8652 91.2999 46.35 90.6651 46.35ZM89.5151 52.1H59.6151V48.65H89.5151V52.1Z" fill="url(#paint8_linear)"/>
<path d="M72.2652 59.0001H63.0651C62.4304 59.0001 61.9152 59.5153 61.9152 60.15V64.75C61.9152 65.3847 62.4304 65.8999 63.0651 65.8999H72.2652C72.8999 65.8999 73.4151 65.3847 73.4151 64.75V60.15C73.4151 59.5153 72.8999 59.0001 72.2652 59.0001ZM71.1151 63.6H64.2151V61.3H71.1151V63.6Z" fill="url(#paint9_linear)"/>
<path d="M90.6651 46.35H58.4651C57.8304 46.35 57.3152 46.8652 57.3152 47.4999V69.3499C57.3152 69.9846 57.8304 70.4998 58.4651 70.4998H85.8421C86.2066 70.4998 86.5481 70.3286 86.7644 70.0364C86.9818 69.7443 87.0485 69.3671 86.9438 69.0186L85.4879 64.1645L90.3352 65.6193C90.6837 65.724 91.0609 65.6573 91.3517 65.4399C91.6438 65.2238 91.8152 64.8811 91.8152 64.5176V47.4999C91.815 46.8652 91.2998 46.35 90.6651 46.35ZM89.5151 62.9721L84.102 61.3483C83.6961 61.2263 83.258 61.3379 82.9589 61.637C82.6588 61.9371 82.5484 62.3752 82.6703 62.7813L84.2963 68.2001H59.6151V48.65H89.5151V62.9721Z" fill="url(#paint10_linear)"/>
</g>
</g>
</g>
<defs>
<filter id="filter0_d" x="0.193409" y="-10.1717" width="152.185" height="151.771" filterUnits="userSpaceOnUse" color-interpolation-filters="sRGB">
<feFlood flood-opacity="0" result="BackgroundImageFix"/>
<feColorMatrix in="SourceAlpha" type="matrix" values="0 0 0 0 0 0 0 0 0 0 0 0 0 0 0 0 0 0 127 0" result="hardAlpha"/>
<feMorphology radius="2.9062" operator="dilate" in="SourceAlpha" result="effect1_dropShadow"/>
<feOffset/>
<feGaussianBlur stdDeviation="3.63275"/>
<feColorMatrix type="matrix" values="0 0 0 0 0 0 0 0 0 1 0 0 0 0 0.407843 0 0 0 1 0"/>
<feBlend mode="normal" in2="BackgroundImageFix" result="effect1_dropShadow"/>
<feBlend mode="normal" in="SourceGraphic" in2="effect1_dropShadow" result="shape"/>
</filter>
<linearGradient id="paint0_linear" x1="10.3653" y1="65.7179" x2="142.206" y2="65.7179" gradientUnits="userSpaceOnUse">
<stop stop-color="#8FFF70"/>
<stop offset="1" stop-color="#8FFFFF"/>
</linearGradient>
<linearGradient id="paint1_linear" x1="42.3651" y1="59.3833" x2="111.365" y2="59.3832" gradientUnits="userSpaceOnUse">
<stop stop-color="#8FFF73"/>
<stop offset="1" stop-color="#8FFFF9"/>
</linearGradient>
<linearGradient id="paint2_linear" x1="42.3651" y1="84.4008" x2="111.365" y2="84.4008" gradientUnits="userSpaceOnUse">
<stop stop-color="#8FFF73"/>
<stop offset="1" stop-color="#8FFFF9"/>
</linearGradient>
<linearGradient id="paint3_linear" x1="72.2651" y1="84.3202" x2="81.4651" y2="84.3202" gradientUnits="userSpaceOnUse">
<stop stop-color="#8FFF73"/>
<stop offset="1" stop-color="#8FFFF9"/>
</linearGradient>
<linearGradient id="paint4_linear" x1="46.9652" y1="61.643" x2="106.765" y2="61.643" gradientUnits="userSpaceOnUse">
<stop stop-color="#8FFF73"/>
<stop offset="1" stop-color="#8FFFF9"/>
</linearGradient>
<linearGradient id="paint5_linear" x1="58.4652" y1="100.461" x2="95.2652" y2="100.461" gradientUnits="userSpaceOnUse">
<stop stop-color="#8FFF73"/>
<stop offset="1" stop-color="#8FFFF9"/>
</linearGradient>
<linearGradient id="paint6_linear" x1="63.0652" y1="93.6009" x2="90.665" y2="93.6009" gradientUnits="userSpaceOnUse">
<stop stop-color="#8FFF73"/>
<stop offset="1" stop-color="#8FFFF9"/>
</linearGradient>
<linearGradient id="paint7_linear" x1="82.6228" y1="68.906" x2="97.654" y2="68.906" gradientUnits="userSpaceOnUse">
<stop stop-color="#8FFF73"/>
<stop offset="1" stop-color="#8FFFF9"/>
</linearGradient>
<linearGradient id="paint8_linear" x1="57.3152" y1="50.4456" x2="91.8151" y2="50.4456" gradientUnits="userSpaceOnUse">
<stop stop-color="#8FFF73"/>
<stop offset="1" stop-color="#8FFFF9"/>
</linearGradient>
<linearGradient id="paint9_linear" x1="61.9152" y1="62.5105" x2="73.4151" y2="62.5105" gradientUnits="userSpaceOnUse">
<stop stop-color="#8FFF73"/>
<stop offset="1" stop-color="#8FFFF9"/>
</linearGradient>
<linearGradient id="paint10_linear" x1="57.3152" y1="58.6367" x2="91.8152" y2="58.6367" gradientUnits="userSpaceOnUse">
<stop stop-color="#8FFF73"/>
<stop offset="1" stop-color="#8FFFF9"/>
</linearGradient>
<clipPath id="clip0">
<rect width="131.841" height="131.427" fill="white" transform="translate(10.3651)"/>
</clipPath>
<clipPath id="clip1">
<rect width="69" height="69" fill="white" transform="translate(42.3651 36)"/>
</clipPath>
</defs>
</svg>
